_includes/icons/color-not-applicable.svg

<svg fill="#666" height="50" viewBox="0 0 48 48" width="50" xmlns="http://www.w3.org/2000/svg"><path d="m7 8h34c2.199219 0 4 1.800781 4 4v24c0 2.199219-1.800781 4-4 4h-34c-2.199219 0-4-1.800781-4-4v-24c0-2.199219 1.800781-4 4-4" fill="#ff6e40"/><path d="m23 32h-3.800781l-5.199219-10v10h-4v-16h3.898438l5.101562 10v-10h4zm12.101563-3h-5.101563l-1 3h-4l5.699219-16h3.5l5.800781 16h-4zm-4.300782-3h3.300782l-1.703125-5.5z" fill="#ffccbc"/></svg>

<svg xmlns="http://www.w3.org/2000/svg" viewBox="0 0 48 48" width="50" height="50" fill="#666"><path d="M 7 8 L 41 8 C 43.199219 8 45 9.800781 45 12 L 45 36 C 45 38.199219 43.199219 40 41 40 L 7 40 C 4.800781 40 3 38.199219 3 36 L 3 12 C 3 9.800781 4.800781 8 7 8" fill="#ff6e40"/><path d="M 23 32 L 19.199219 32 L 14 22 L 14 32 L 10 32 L 10 16 L 13.898438 16 L 19 26 L 19 16 L 23 16 Z M 35.101563 29 L 30 29 L 29 32 L 25 32 L 30.699219 16 L 34.199219 16 L 40 32 L 36 32 Z M 30.800781 26 L 34.101563 26 L 32.398438 20.5 Z" fill="#ffccbc"/></svg>
